static/img/kroki/4fb98b65d510c8cf74f28ebef0d57f47.svg

<?xml version="1.0" encoding="us-ascii" standalone="no"?><svg xmlns="http://www.w3.org/2000/svg" xmlns:xlink="http://www.w3.org/1999/xlink" contentStyleType="text/css" height="152px" preserveAspectRatio="none" style="width:940px;height:152px;" version="1.1" viewBox="0 0 940 152" width="940px" zoomAndPan="magnify"><defs/><g><!--class azure_machine_learning_registry_model_container--><g id="elem_azure_machine_learning_registry_model_container"><rect codeLine="23" fill="#3D176E" height="39.7891" id="azure_machine_learning_registry_model_container" rx="2.5" ry="2.5" style="stroke:#000D19;stroke-width:0.5;" width="469" x="7" y="7"/><ellipse cx="22" cy="26.8945" fill="#ADD1B2" rx="11" ry="11" style="stroke:#181818;stroke-width:1.0;"/><path d="M24.9688,32.5352 Q24.3906,32.832 23.75,32.9727 Q23.1094,33.1289 22.4063,33.1289 Q19.9063,33.1289 18.5781,31.4883 Q17.2656,29.832 17.2656,26.707 Q17.2656,23.582 18.5781,21.9258 Q19.9063,20.2695 22.4063,20.2695 Q23.1094,20.2695 23.75,20.4258 Q24.4063,20.582 24.9688,20.8789 L24.9688,23.5977 Q24.3438,23.0195 23.75,22.7539 Q23.1563,22.4727 22.5313,22.4727 Q21.1875,22.4727 20.5,23.5508 Q19.8125,24.6133 19.8125,26.707 Q19.8125,28.8008 20.5,29.8789 Q21.1875,30.9414 22.5313,30.9414 Q23.1563,30.9414 23.75,30.6758 Q24.3438,30.3945 24.9688,29.8164 L24.9688,32.5352 Z " fill="#000000"/><text fill="#D9B8FF" font-family="Helvetica" font-size="17" lengthAdjust="spacing" textLength="427" x="41" y="32.7798">azure_machine_learning_registry_model_container</text></g><!--class azure_machine_learning_registry_model_version--><g id="elem_azure_machine_learning_registry_model_version"><rect codeLine="26" fill="#3D176E" height="39.7891" id="azure_machine_learning_registry_model_version" rx="2.5" ry="2.5" style="stroke:#000D19;stroke-width:0.5;" width="451" x="256" y="106.79"/><ellipse cx="271" cy="126.6845" fill="#ADD1B2" rx="11" ry="11" style="stroke:#181818;stroke-width:1.0;"/><path d="M273.9688,132.3252 Q273.3906,132.622 272.75,132.7627 Q272.1094,132.9189 271.4063,132.9189 Q268.9063,132.9189 267.5781,131.2783 Q266.2656,129.622 266.2656,126.497 Q266.2656,123.372 267.5781,121.7158 Q268.9063,120.0595 271.4063,120.0595 Q272.1094,120.0595 272.75,120.2158 Q273.4063,120.372 273.9688,120.6689 L273.9688,123.3877 Q273.3438,122.8095 272.75,122.5439 Q272.1563,122.2627 271.5313,122.2627 Q270.1875,122.2627 269.5,123.3408 Q268.8125,124.4033 268.8125,126.497 Q268.8125,128.5908 269.5,129.6689 Q270.1875,130.7314 271.5313,130.7314 Q272.1563,130.7314 272.75,130.4658 Q273.3438,130.1845 273.9688,129.6064 L273.9688,132.3252 Z " fill="#000000"/><text fill="#D9B8FF" font-family="Helvetica" font-size="17" lengthAdjust="spacing" textLength="409" x="290" y="132.5698">azure_machine_learning_registry_model_version</text></g><!--class azure_machine_learning_serverless_endpoint--><g id="elem_azure_machine_learning_serverless_endpoint"><rect codeLine="29" fill="#3D176E" height="39.7891" id="azure_machine_learning_serverless_endpoint" rx="2.5" ry="2.5" style="stroke:#000D19;stroke-width:0.5;" width="422" x="511.5" y="7"/><ellipse cx="526.5" cy="26.8945" fill="#ADD1B2" rx="11" ry="11" style="stroke:#181818;stroke-width:1.0;"/><path d="M529.4688,32.5352 Q528.8906,32.832 528.25,32.9727 Q527.6094,33.1289 526.9063,33.1289 Q524.4063,33.1289 523.0781,31.4883 Q521.7656,29.832 521.7656,26.707 Q521.7656,23.582 523.0781,21.9258 Q524.4063,20.2695 526.9063,20.2695 Q527.6094,20.2695 528.25,20.4258 Q528.9063,20.582 529.4688,20.8789 L529.4688,23.5977 Q528.8438,23.0195 528.25,22.7539 Q527.6563,22.4727 527.0313,22.4727 Q525.6875,22.4727 525,23.5508 Q524.3125,24.6133 524.3125,26.707 Q524.3125,28.8008 525,29.8789 Q525.6875,30.9414 527.0313,30.9414 Q527.6563,30.9414 528.25,30.6758 Q528.8438,30.3945 529.4688,29.8164 L529.4688,32.5352 Z " fill="#000000"/><text fill="#D9B8FF" font-family="Helvetica" font-size="17" lengthAdjust="spacing" textLength="380" x="545.5" y="32.7798">azure_machine_learning_serverless_endpoint</text></g><!--link azure_machine_learning_registry_model_container to azure_machine_learning_registry_model_version--><g id="link_azure_machine_learning_registry_model_container_azure_machine_learning_registry_model_version"><path codeLine="32" d="M288.92,47.22 C330.99,64.36 386.584,87.0048 428.624,104.1448 " fill="none" id="azure_machine_learning_registry_model_container-to-azure_machine_learning_registry_model_version" style="stroke:#1A83AF;stroke-width:2.0;"/><polygon fill="#1A83AF" points="434.18,106.41,427.3562,99.3082,429.55,104.5223,424.3359,106.7162,434.18,106.41" style="stroke:#1A83AF;stroke-width:2.0;"/></g><!--link azure_machine_learning_serverless_endpoint to azure_machine_learning_registry_model_version--><g id="link_azure_machine_learning_serverless_endpoint_azure_machine_learning_registry_model_version"><path codeLine="33" d="M674.89,47.22 C632.64,64.36 576.7995,87.0135 534.5695,104.1535 " fill="none" id="azure_machine_learning_serverless_endpoint-to-azure_machine_learning_registry_model_version" style="stroke:#1A83AF;stroke-width:2.0;"/><polygon fill="#1A83AF" points="529.01,106.41,538.8536,106.7317,533.6429,104.5296,535.845,99.319,529.01,106.41" style="stroke:#1A83AF;stroke-width:2.0;"/></g><!--SRC=[fPDDIyD048Rl-HKBFHSQYxQz235Gz5B4UXC9q-niitG_mkosfHN_kubLMPD-6BpkFBFlCyDk8JaorANVCOrwWUGYjvAc10BD4YAxJQson7f2W1YEciMfDVuYC0EDx1xL1htCeKay5p9V6NIENGMbEyXNIx9hmm_NUmBZgX8Q7r2f0kSIxqakrXu36JvPZ8LeairBUqCUZswmXLdYI5_8O33WyQI9N8mwE_SFCPTxP76uj9drsD9iHNnIPorh8f1i3VfTF-du29nBisJNmTdJmOaCqg_pUG7SRcjQW79XZFD8QFsknBGr5Kx6N8oEmW-du2YlLyTWloRCDEI5D9Wf139LUaQubCxJBjEMeyhoQZwGjUnR5BrtQjrK7q5QyuT6XrJ1gdg_6HfUMcdyeQkhO_-b5oVZOJ9zxTzsiumwgFqZvGC0]--></g></svg>

<svg xmlns="http://www.w3.org/2000/svg" width="940" height="152" viewBox="0 0 940 152"><rect width="469" height="39.789" x="7" y="7" fill="#3D176E" rx="2.5" ry="2.5" style="stroke:#000d19;stroke-width:.5"/><circle cx="22" cy="26.895" r="11" fill="#ADD1B2" style="stroke:#181818;stroke-width:1"/><path d="M24.969 32.535q-.578.297-1.219.438-.64.156-1.344.156-2.5 0-3.828-1.64-1.312-1.657-1.312-4.782t1.312-4.781q1.328-1.656 3.828-1.656.703 0 1.344.156.656.156 1.219.453v2.719q-.625-.578-1.219-.844-.594-.281-1.219-.281-1.343 0-2.031 1.078-.687 1.062-.687 3.156t.687 3.172q.688 1.062 2.031 1.062.625 0 1.219-.265.594-.281 1.219-.86z"/><text x="41" y="32.78" fill="#D9B8FF" font-family="Helvetica" font-size="17" textLength="427">azure_machine_learning_registry_model_container</text><rect width="451" height="39.789" x="256" y="106.79" fill="#3D176E" rx="2.5" ry="2.5" style="stroke:#000d19;stroke-width:.5"/><circle cx="271" cy="126.684" r="11" fill="#ADD1B2" style="stroke:#181818;stroke-width:1"/><path d="M273.969 132.325q-.578.297-1.219.438-.64.156-1.344.156-2.5 0-3.828-1.64-1.312-1.657-1.312-4.782t1.312-4.781q1.328-1.656 3.828-1.656.703 0 1.344.156.656.156 1.219.453v2.719q-.625-.579-1.219-.844-.594-.281-1.219-.281-1.344 0-2.031 1.078-.687 1.062-.687 3.156t.687 3.172q.688 1.062 2.031 1.062.625 0 1.219-.265.594-.281 1.219-.86z"/><text x="290" y="132.57" fill="#D9B8FF" font-family="Helvetica" font-size="17" textLength="409">azure_machine_learning_registry_model_version</text><rect width="422" height="39.789" x="511.5" y="7" fill="#3D176E" rx="2.5" ry="2.5" style="stroke:#000d19;stroke-width:.5"/><circle cx="526.5" cy="26.895" r="11" fill="#ADD1B2" style="stroke:#181818;stroke-width:1"/><path d="M529.469 32.535q-.578.297-1.219.438-.64.156-1.344.156-2.5 0-3.828-1.64-1.312-1.657-1.312-4.782t1.312-4.781q1.328-1.656 3.828-1.656.703 0 1.344.156.656.156 1.219.453v2.719q-.625-.578-1.219-.844-.594-.281-1.219-.281-1.343 0-2.031 1.078-.687 1.062-.687 3.156t.687 3.172q.688 1.062 2.031 1.062.625 0 1.219-.265.594-.281 1.219-.86z"/><text x="545.5" y="32.78" fill="#D9B8FF" font-family="Helvetica" font-size="17" textLength="380">azure_machine_learning_serverless_endpoint</text><path fill="none" d="M288.92 47.22c42.07 17.14 97.664 39.785 139.704 56.925" style="stroke:#1a83af;stroke-width:2"/><path fill="#1A83AF" d="m434.18 106.41-6.824-7.102 2.194 5.214-5.214 2.194z" style="stroke:#1a83af;stroke-width:2"/><path fill="none" d="M674.89 47.22c-42.25 17.14-98.09 39.793-140.32 56.933" style="stroke:#1a83af;stroke-width:2"/><path fill="#1A83AF" d="m529.01 106.41 9.844.322-5.211-2.202 2.202-5.211z" style="stroke:#1a83af;stroke-width:2"/></svg>
